pitch-roulette/src/img/control_icon/setting.svg

<svg width="19" height="19" viewBox="0 0 19 19" fill="none" xmlns="http://www.w3.org/2000/svg">
<path d="M18.0942 11.5245L16.405 10.2283C16.4295 10.0326 16.454 9.78806 16.454 9.54349C16.454 9.29893 16.4295 9.05438 16.405 8.85873L18.0942 7.56252C18.4125 7.31796 18.4859 6.87775 18.29 6.53536L16.5274 3.55165C16.3316 3.20926 15.9154 3.03807 15.4992 3.18481L13.4918 3.96743C13.1001 3.69841 12.7084 3.47829 12.2922 3.28264L11.974 1.20384C11.925 0.812533 11.5823 0.519043 11.1661 0.519043H7.61637C7.20019 0.519043 6.85745 0.812533 6.80848 1.20384L6.49022 3.28264C6.07404 3.45383 5.68237 3.67395 5.29068 3.96743L3.28325 3.18481C2.91604 3.03807 2.45088 3.20927 2.27951 3.5272L0.516895 6.51088C0.296566 6.85327 0.394502 7.29351 0.712754 7.53807L2.40192 8.83425C2.37743 9.07881 2.35297 9.29893 2.35297 9.51904C2.35297 9.71469 2.37743 9.93482 2.40192 10.2038L0.712754 11.5C0.394502 11.7446 0.321047 12.1848 0.516895 12.5272L2.27951 15.4864C2.47536 15.8288 2.86704 16 3.3077 15.8533L5.31512 15.0707C5.70682 15.3397 6.09855 15.5598 6.51473 15.7554L6.80848 17.8342C6.85745 18.2256 7.20019 18.519 7.61637 18.519H11.1661C11.5823 18.519 11.925 18.2256 11.974 17.8342L12.2922 15.7554C12.7084 15.5843 13.1001 15.3641 13.4918 15.0707L15.4992 15.8533C15.5971 15.8777 15.6951 15.9022 15.793 15.9022C16.0868 15.9022 16.3561 15.7555 16.503 15.4864L18.2656 12.5027C18.4859 12.1848 18.4125 11.769 18.0942 11.5245ZM9.40349 12.5517C7.7143 12.5517 6.31887 11.2065 6.31887 9.56794C6.31887 7.92936 7.68982 6.58426 9.40349 6.58426C11.1172 6.58426 12.4881 7.92936 12.4881 9.56794C12.4881 11.2065 11.0927 12.5517 9.40349 12.5517Z" fill="white"/>
</svg>

<svg width="19" height="19" fill="none" xmlns="http://www.w3.org/2000/svg"><path d="m18.094 11.524-1.689-1.296c.024-.195.049-.44.049-.685 0-.244-.024-.489-.049-.684l1.69-1.296a.794.794 0 0 0 .195-1.028l-1.763-2.983a.843.843 0 0 0-1.028-.367l-2.007.782a8.397 8.397 0 0 0-1.2-.684l-.318-2.08a.798.798 0 0 0-.808-.684h-3.55a.798.798 0 0 0-.808.685L6.49 3.283a5.393 5.393 0 0 0-1.2.684l-2.007-.782c-.367-.147-.832.024-1.003.342L.517 6.511a.769.769 0 0 0 .196 1.027l1.689 1.296c-.025.245-.049.465-.049.685 0 .196.024.416.049.685L.712 11.5a.795.795 0 0 0-.195 1.027l1.763 2.96c.195.342.587.513 1.028.366l2.007-.782c.392.269.784.489 1.2.684l.293 2.08a.798.798 0 0 0 .808.684h3.55a.798.798 0 0 0 .808-.685l.318-2.079a5.393 5.393 0 0 0 1.2-.684l2.007.782c.098.025.196.05.294.05a.794.794 0 0 0 .71-.417l1.763-2.983c.22-.318.147-.734-.172-.979zm-8.69 1.028c-1.69 0-3.085-1.345-3.085-2.984s1.37-2.984 3.084-2.984 3.085 1.345 3.085 2.984-1.395 2.984-3.085 2.984z" fill="#fff"/></svg>
